images/ic_info_contributor.svg

<svg width="18" height="18" viewBox="0 0 18 18" fill="none" xmlns="http://www.w3.org/2000/svg">
<path d="M9 5.16797C9.38833 5.16797 9.70312 4.85317 9.70312 4.46484C9.70312 4.07652 9.38833 3.76172 9 3.76172C8.61167 3.76172 8.29688 4.07652 8.29688 4.46484C8.29688 4.85317 8.61167 5.16797 9 5.16797Z" fill="#979797"/>
<path d="M15.364 2.63602C13.6641 0.936176 11.404 0 9 0C6.59602 0 4.33593 0.936176 2.63602 2.63602C0.936176 4.33593 0 6.59602 0 9C0 11.404 0.936176 13.6641 2.63602 15.364C4.33593 17.0638 6.59602 18 9 18C10.6458 18 12.2561 17.5515 13.6568 16.703C13.989 16.5017 14.0951 16.0694 13.8939 15.7373C13.6927 15.4051 13.2604 15.299 12.9283 15.5002C11.7472 16.2156 10.3889 16.5938 9 16.5938C4.81279 16.5938 1.40625 13.1872 1.40625 9C1.40625 4.81279 4.81279 1.40625 9 1.40625C13.1872 1.40625 16.5938 4.81279 16.5938 9C16.5938 10.4973 16.1485 11.9547 15.3061 13.2147C15.0903 13.5375 15.177 13.9742 15.4998 14.19C15.8227 14.4058 16.2593 14.3191 16.4751 13.9963C17.4727 12.5042 18 10.7764 18 9C18 6.59602 17.0638 4.33593 15.364 2.63602Z" fill="#979797"/>
<path d="M9 6.57422C8.61166 6.57422 8.29688 6.88901 8.29688 7.27734V13.5352C8.29688 13.9235 8.61166 14.2383 9 14.2383C9.38834 14.2383 9.70312 13.9235 9.70312 13.5352V7.27734C9.70312 6.88901 9.38834 6.57422 9 6.57422Z" fill="#979797"/>
</svg>

<svg xmlns="http://www.w3.org/2000/svg" fill="#979797" viewBox="0 0 18 18"><path d="M9 5.168c.388 0 .703-.315.703-.703S9.388 3.762 9 3.762s-.703.315-.703.703.315.703.703.703zm6.364-2.532A8.94 8.94 0 0 0 9 0a8.94 8.94 0 0 0-6.364 2.636A8.94 8.94 0 0 0 0 9a8.94 8.94 0 0 0 2.636 6.364A8.94 8.94 0 0 0 9 18a8.98 8.98 0 0 0 4.657-1.297c.332-.2.438-.634.237-.966s-.633-.438-.966-.237A7.58 7.58 0 0 1 9 16.594c-4.187 0-7.594-3.407-7.594-7.594S4.813 1.406 9 1.406 16.594 4.813 16.594 9a7.56 7.56 0 0 1-1.288 4.215.7.7 0 0 0 .194.975c.324.215.76.13.975-.194A8.96 8.96 0 0 0 18 9a8.94 8.94 0 0 0-2.636-6.364zM9 6.574c-.388 0-.703.315-.703.703v6.258c0 .388.315.703.703.703s.703-.315.703-.703V7.277c0-.388-.315-.703-.703-.703z"/></svg>
